tools/download-figma-icons/icons/solid/smoke-detector.svg

<svg width="24" height="24" viewBox="0 0 24 24" fill="none" xmlns="http://www.w3.org/2000/svg">
<path fill-rule="evenodd" clip-rule="evenodd" d="M18 12H16.17L16.7625 9H19.185L18 12ZM14.64 12H12.75V10.365C13.3875 10.1325 13.8825 9.6375 14.115 9H15.2325L14.64 12ZM12 9C11.5875 9 11.25 8.6625 11.25 8.25C11.25 7.8375 11.5875 7.5 12 7.5C12.4125 7.5 12.75 7.8375 12.75 8.25C12.75 8.6625 12.4125 9 12 9ZM11.25 12H9.36001L8.76751 9H9.88501C10.1175 9.6375 10.6125 10.1325 11.25 10.365V12ZM5.99999 12L4.81499 9H7.23749L7.82999 12H5.99999ZM23.25 2.25H0.75C0.3375 2.25 0 2.5875 0 3V8.25C0 8.6625 0.3375 9 0.75 9H3.2025L4.7925 13.0275C4.905 13.3125 5.1825 13.5 5.49 13.5H18.51C18.8175 13.5 19.095 13.3125 19.2075 13.0275L20.7975 9H23.25C23.6625 9 24 8.6625 24 8.25V3C24 2.5875 23.6625 2.25 23.25 2.25ZM12 18.75C13.3605 18.75 14.631 18.1207 15.5783 16.9785C15.8415 16.6597 15.7973 16.1865 15.4785 15.9225C15.1598 15.657 14.6865 15.7035 14.4218 16.0215C13.7655 16.8135 12.906 17.25 12 17.25C11.094 17.25 10.2345 16.8135 9.57827 16.0215C9.31277 15.7035 8.84026 15.6562 8.52151 15.9225C8.20276 16.1865 8.15851 16.6597 8.42176 16.9785C9.36901 18.1207 10.6395 18.75 12 18.75ZM12.0004 20.2502C14.0389 20.2502 15.9649 19.2812 17.4221 17.5217C17.6876 17.2037 18.1594 17.158 18.4781 17.4227C18.7976 17.6867 18.8419 18.1592 18.5779 18.478C16.8304 20.5877 14.4941 21.7502 12.0004 21.7502C9.50586 21.7502 7.16961 20.5877 5.42211 18.478C5.15811 18.1592 5.20236 17.6867 5.52186 17.4227C5.84061 17.1572 6.31236 17.203 6.57786 17.5217C8.03511 19.2812 9.96111 20.2502 12.0004 20.2502Z" fill="black"/>
</svg>

<svg width="24" height="24" viewBox="0 0 24 24" fill="none" xmlns="http://www.w3.org/2000/svg"><path fill-rule="evenodd" clip-rule="evenodd" d="M18 12h-1.83l.592-3h2.423L18 12Zm-3.36 0h-1.89v-1.635A2.276 2.276 0 0 0 14.115 9h1.117l-.592 3ZM12 9a.752.752 0 0 1-.75-.75c0-.412.338-.75.75-.75s.75.338.75.75S12.412 9 12 9Zm-.75 3H9.36l-.592-3h1.117a2.276 2.276 0 0 0 1.365 1.365V12ZM6 12 4.815 9h2.422l.593 3H6Zm17.25-9.75H.75A.752.752 0 0 0 0 3v5.25c0 .412.338.75.75.75h2.453l1.59 4.027a.75.75 0 0 0 .697.473h13.02a.75.75 0 0 0 .697-.473L20.797 9h2.453c.413 0 .75-.338.75-.75V3a.752.752 0 0 0-.75-.75ZM12 18.75c1.36 0 2.631-.63 3.578-1.771a.751.751 0 0 0-1.156-.957c-.657.792-1.516 1.228-2.422 1.228-.906 0-1.765-.436-2.422-1.229a.75.75 0 0 0-1.156.957c.947 1.143 2.217 1.772 3.578 1.772Zm0 1.5c2.039 0 3.965-.969 5.422-2.728a.75.75 0 0 1 1.156.956C16.83 20.588 14.494 21.75 12 21.75c-2.494 0-4.83-1.162-6.578-3.272a.749.749 0 1 1 1.156-.956C8.035 19.282 9.96 20.25 12 20.25Z" fill="currentColor"/></svg>
